assets/images/logo_ocadu.svg

<svg width="93" height="78" viewBox="0 0 93 78" fill="none" xmlns="http://www.w3.org/2000/svg">
<path d="M59.1219 77.234V56.6839H92.637V0H35.9748V18.1398H0V56.6839H35.9748V77.234H59.1219ZM2.53564 20.7338H35.9754V54.0862H2.53564V20.7338ZM56.5887 74.6357H38.5128V56.6839H56.5887V74.6357ZM90.0387 54.0862H38.5128V2.59707H90.0387V54.0862Z" fill="white"/>
<path d="M12.191 34.872C11.4773 34.872 10.8159 34.7455 10.2125 34.4944C9.60414 34.2469 9.07894 33.9054 8.6459 33.4747C8.20442 33.0435 7.8569 32.5406 7.60755 31.9612C7.3582 31.3836 7.23413 30.7644 7.23413 30.1019V30.0778C7.23413 29.4195 7.3582 28.7997 7.60755 28.2149C7.8569 27.6307 8.20984 27.1188 8.65734 26.6833C9.10544 26.2503 9.63365 25.9106 10.2384 25.6588C10.8437 25.4095 11.5038 25.2842 12.2157 25.2842C12.9197 25.2842 13.5817 25.4095 14.1864 25.6588C14.7977 25.9106 15.3163 26.2503 15.7511 26.6803C16.1974 27.1115 16.5389 27.6132 16.7925 28.1926C17.0412 28.7769 17.1647 29.3948 17.1647 30.0501V30.0778C17.1647 30.7379 17.0412 31.3583 16.7925 31.9383C16.5389 32.5249 16.189 33.0338 15.7439 33.4687C15.2904 33.9035 14.7652 34.2469 14.1599 34.4944C13.5552 34.7455 12.8969 34.872 12.191 34.872ZM12.2084 32.5671C12.5584 32.5671 12.877 32.4996 13.1709 32.3689C13.4648 32.237 13.7069 32.0611 13.9081 31.8353C14.1105 31.6106 14.2689 31.3516 14.3857 31.0499C14.5044 30.7548 14.558 30.4374 14.558 30.1019V30.0778C14.558 29.7423 14.5044 29.4297 14.3857 29.128C14.2689 28.8299 14.1105 28.5673 13.9009 28.3408C13.6816 28.1101 13.4353 27.93 13.1456 27.7891C12.8523 27.6554 12.5349 27.5891 12.1819 27.5891C11.8302 27.5891 11.5116 27.6524 11.2207 27.7885C10.9352 27.9144 10.6895 28.0987 10.4793 28.3179C10.2745 28.5438 10.1197 28.804 10.0077 29.1039C9.89926 29.4008 9.84445 29.717 9.84445 30.0501V30.0778C9.84445 30.4109 9.90348 30.7301 10.0131 31.0252C10.1287 31.3239 10.2859 31.5865 10.4985 31.8142C10.7057 32.0443 10.9509 32.228 11.2442 32.3629C11.5351 32.4996 11.8555 32.5671 12.2084 32.5671Z" fill="white"/>
<path d="M26.7398 34.8719C26.0748 34.8719 25.4581 34.7527 24.8769 34.5172C24.3017 34.2787 23.7988 33.9468 23.3687 33.5222C22.9459 33.0946 22.6074 32.5904 22.3551 32.0038C22.1045 31.4208 21.9799 30.7884 21.9799 30.1018V30.0777C21.9799 29.4073 22.1045 28.7852 22.3509 28.201C22.5984 27.6191 22.9339 27.1096 23.3651 26.6717C23.7988 26.2369 24.3083 25.896 24.9004 25.6539C25.4882 25.4075 26.1393 25.2847 26.8391 25.2847C27.318 25.2847 27.7438 25.3329 28.128 25.4244C28.5171 25.5147 28.8755 25.6442 29.1959 25.8189C29.5127 25.9863 29.8072 26.1965 30.062 26.4308C30.3174 26.6669 30.5528 26.9259 30.7528 27.2072L28.8297 28.696C28.5665 28.3606 28.2762 28.0992 27.9624 27.9058C27.645 27.7155 27.2619 27.6143 26.8144 27.6143C26.4928 27.6143 26.1947 27.6794 25.9261 27.8071C25.6574 27.9329 25.4274 28.1076 25.2388 28.3268C25.0461 28.5443 24.8967 28.8044 24.7787 29.1044C24.6721 29.4025 24.6185 29.7175 24.6185 30.0524V30.0783C24.6185 30.4198 24.6721 30.742 24.7787 31.0462C24.8961 31.3497 25.0455 31.6093 25.2388 31.8273C25.4268 32.0472 25.6568 32.2236 25.9261 32.3501C26.1941 32.4778 26.4922 32.5405 26.8144 32.5405C27.0517 32.5405 27.2686 32.5134 27.4703 32.4646C27.6685 32.4073 27.8438 32.3327 28.007 32.2285C28.1732 32.1285 28.3244 32.0116 28.4701 31.8773C28.6153 31.7382 28.7592 31.5864 28.899 31.4166L30.8221 32.7898C30.6028 33.0885 30.3619 33.3686 30.1017 33.6204C29.8403 33.8721 29.547 34.0938 29.2206 34.2787C28.8881 34.463 28.5249 34.6087 28.1142 34.7123C27.704 34.8177 27.2499 34.8719 26.7398 34.8719Z" fill="white"/>
<path d="M22.4509 39.8987H26.0056C26.8314 39.8987 27.5704 40.0137 28.2136 40.2348C28.8587 40.4618 29.4038 40.7744 29.8482 41.181C30.2843 41.5833 30.627 42.0615 30.8631 42.6216C31.0884 43.1763 31.2052 43.7877 31.2052 44.4592V44.4845C31.2052 45.1525 31.0884 45.7668 30.8541 46.336C30.6138 46.9039 30.2753 47.3894 29.8217 47.8001C29.3797 48.2139 28.825 48.5385 28.1727 48.7728C27.5168 49.0029 26.7814 49.1185 25.9514 49.1185H22.4509V39.8987ZM26.0502 46.8557C26.8145 46.8557 27.4343 46.6528 27.8998 46.2498C28.3666 45.8463 28.5997 45.2687 28.5997 44.5231V44.4984C28.5997 43.7618 28.3666 43.186 27.8998 42.7794C27.4343 42.3711 26.8139 42.1693 26.0502 42.1693H25.0052V46.8551H26.0502V46.8557Z" fill="white"/>
<path d="M47.5272 70.2938C46.9014 70.2938 46.3419 70.2137 45.845 70.0553C45.3517 69.8987 44.9247 69.6566 44.5778 69.3296C44.2272 69.0025 43.9622 68.5851 43.7749 68.0834C43.5882 67.5841 43.493 66.9915 43.493 66.3103V61.4221H45.9552V66.2633C45.9552 66.8939 46.1022 67.3583 46.3913 67.6618C46.6767 67.9636 47.0664 68.116 47.5573 68.116C48.0367 68.116 48.4234 67.9714 48.7113 67.6781C48.9992 67.3896 49.1504 66.9379 49.1504 66.3229V61.4215H51.6065V66.2477C51.6065 66.9535 51.5119 67.5619 51.3162 68.0732C51.1204 68.5827 50.8506 69.0025 50.4947 69.3296C50.1417 69.6566 49.7207 69.8987 49.21 70.0553C48.7107 70.2137 48.1499 70.2938 47.5272 70.2938Z" fill="white"/>
<path d="M45.5572 11.9091C45.2181 11.9091 44.8989 11.8507 44.605 11.7314C44.3219 11.6098 44.0695 11.4453 43.8611 11.2388C43.6503 11.0364 43.4841 10.7919 43.3612 10.5142C43.2414 10.2329 43.1818 9.93782 43.1818 9.62101V9.61198C43.1818 9.29397 43.2414 8.99403 43.3612 8.71336C43.4841 8.43571 43.6503 8.18817 43.8611 7.98279C44.0774 7.775 44.3291 7.60997 44.6236 7.49071C44.917 7.36845 45.2253 7.30762 45.5692 7.30762C45.9131 7.30762 46.2312 7.36845 46.5154 7.49071C46.8088 7.60997 47.0611 7.77138 47.2707 7.97917C47.4797 8.18756 47.6489 8.43029 47.764 8.70614C47.8856 8.98379 47.9513 9.28072 47.9513 9.59692V9.61258C47.9513 9.92396 47.8862 10.2239 47.764 10.504C47.6489 10.7846 47.4791 11.0286 47.2629 11.2376C47.0521 11.4466 46.7961 11.6104 46.5076 11.732C46.2143 11.8513 45.8957 11.9091 45.5572 11.9091ZM45.5692 10.8015C45.7367 10.8015 45.8878 10.7714 46.0294 10.7081C46.1733 10.6455 46.2908 10.5594 46.3853 10.4492C46.4835 10.3438 46.5588 10.2227 46.6142 10.0763C46.6672 9.9336 46.6943 9.78122 46.6943 9.62041V9.61138C46.6943 9.45056 46.6672 9.29758 46.6142 9.15183C46.5588 9.00909 46.4787 8.88381 46.3823 8.7748C46.2787 8.66458 46.1571 8.57965 46.0204 8.51099C45.8812 8.44655 45.7222 8.41342 45.5536 8.41342C45.3861 8.41342 45.2344 8.44595 45.0952 8.51039C44.9585 8.57122 44.8411 8.65675 44.7405 8.76516C44.6381 8.87176 44.564 8.99764 44.5134 9.13978C44.4598 9.28554 44.4333 9.4349 44.4333 9.59511V9.61077C44.4333 9.76978 44.4598 9.92095 44.5134 10.0631C44.5731 10.2058 44.6471 10.3317 44.7477 10.4407C44.8489 10.5503 44.9676 10.6407 45.1055 10.7069C45.2434 10.7708 45.3976 10.8015 45.5692 10.8015Z" fill="white"/>
<path d="M50.9736 11.9091C50.6562 11.9091 50.3568 11.8525 50.078 11.7393C49.8003 11.6236 49.5588 11.4646 49.357 11.2628C49.1523 11.0593 48.9896 10.8184 48.8704 10.5341C48.7463 10.2558 48.6897 9.94744 48.6897 9.6204V9.61137C48.6897 9.28794 48.7463 8.9892 48.8644 8.70793C48.983 8.42907 49.1492 8.18274 49.351 7.97675C49.5588 7.76595 49.8033 7.60153 50.09 7.48468C50.3719 7.36784 50.6803 7.30701 51.026 7.30701C51.253 7.30701 51.453 7.3305 51.6385 7.37627C51.8312 7.41662 51.9963 7.48167 52.1493 7.56479C52.3095 7.6467 52.4426 7.74307 52.5672 7.8575C52.6931 7.97073 52.8015 8.09601 52.9027 8.22851L51.9758 8.94403C51.8559 8.78442 51.7132 8.65674 51.5614 8.56459C51.4072 8.47364 51.2265 8.42847 51.0067 8.42847C50.8525 8.42847 50.7104 8.45617 50.5827 8.51701C50.455 8.57904 50.343 8.66156 50.2502 8.76455C50.1557 8.87115 50.087 8.99703 50.034 9.13917C49.9774 9.28191 49.9539 9.43429 49.9539 9.5945V9.61016C49.9539 9.77037 49.9774 9.92697 50.034 10.0721C50.0876 10.2185 50.1557 10.3419 50.2502 10.4479C50.3424 10.5533 50.455 10.6377 50.5827 10.6973C50.7104 10.7599 50.8525 10.79 51.0067 10.79C51.1272 10.79 51.2265 10.7774 51.3211 10.7509C51.4187 10.7262 51.5018 10.6895 51.5795 10.6413C51.6626 10.5919 51.7307 10.5353 51.8047 10.472C51.871 10.407 51.9415 10.3317 52.0065 10.2546L52.9286 10.9117C52.828 11.0532 52.7094 11.1888 52.5847 11.3122C52.4606 11.4297 52.3209 11.5381 52.1667 11.6236C52.0065 11.714 51.8312 11.7832 51.6313 11.8338C51.4349 11.8838 51.2199 11.9091 50.9736 11.9091Z" fill="white"/>
<path d="M55.2125 7.36475H56.3966L58.2769 11.8235H56.9627L56.6393 11.0315H54.9306L54.6204 11.8235H53.3303L55.2125 7.36475ZM56.2894 10.0817L55.7943 8.8247L55.2926 10.0817H56.2894Z" fill="white"/>
<path d="M58.969 7.39734H60.6795C61.0734 7.39734 61.4251 7.45094 61.7353 7.55695C62.0455 7.66596 62.3093 7.81774 62.5249 8.00926C62.7327 8.20501 62.8983 8.43508 63.0098 8.7031C63.12 8.97052 63.1772 9.26263 63.1772 9.58485V9.5963C63.1772 9.91491 63.1194 10.2148 63.0055 10.4841C62.8923 10.7593 62.7267 10.9948 62.5165 11.1894C62.2966 11.3875 62.0389 11.5405 61.7197 11.6549C61.4095 11.7682 61.0481 11.8242 60.6566 11.8242H58.9696V7.39734H58.969ZM60.7 10.7352C61.0674 10.7352 61.3673 10.6352 61.5902 10.4419C61.8124 10.2498 61.9256 9.97393 61.9256 9.61196V9.60473C61.9256 9.24938 61.8124 8.97353 61.5902 8.77899C61.3679 8.58325 61.068 8.48327 60.7 8.48327H60.2019V10.7352H60.7Z" fill="white"/>
<path d="M45.3265 18.8896C45.0091 18.8896 44.7212 18.8481 44.4719 18.7704C44.2201 18.6891 44.0009 18.568 43.8256 18.403C43.651 18.2343 43.5154 18.0253 43.4161 17.7663C43.3245 17.5128 43.2739 17.2128 43.2739 16.8671V14.3821H44.5315V16.8442C44.5315 17.1622 44.5996 17.3983 44.7477 17.5561C44.8917 17.7085 45.0916 17.785 45.3356 17.785C45.5861 17.785 45.7788 17.7115 45.9288 17.5646C46.071 17.4158 46.1481 17.1869 46.1481 16.875V14.3821H47.3948V16.8346C47.3948 17.1966 47.346 17.5025 47.2496 17.7621C47.1533 18.0217 47.0111 18.2337 46.8347 18.4024C46.6522 18.5674 46.4329 18.6891 46.1806 18.7698C45.9258 18.8481 45.6391 18.8896 45.3265 18.8896Z" fill="white"/>
<path d="M48.5078 14.3821H49.6522L51.4777 16.7214V14.3821H52.6853V18.8053H51.6114L49.719 16.3811V18.8053H48.5078V14.3821Z" fill="white"/>
<path d="M55.0897 14.3821H53.8586V18.8059H55.0897V14.3821Z" fill="white"/>
<path d="M55.7937 14.3821H57.1645L58.1637 17.1851L59.1725 14.3821H60.5193L58.7281 18.8396H57.5885L55.7937 14.3821Z" fill="white"/>
<path d="M61.2101 14.3821H64.7624V15.4271H62.4231V16.098H64.5426V17.0635H62.4231V17.7651H64.7967V18.8053H61.2101V14.3821Z" fill="white"/>
<path d="M65.8326 14.3821H67.9196C68.2635 14.3821 68.5484 14.4218 68.7887 14.5104C69.026 14.5929 69.2157 14.7145 69.3609 14.8651C69.6222 15.1181 69.7554 15.4602 69.7554 15.895V15.9065C69.7554 16.2492 69.6704 16.5298 69.509 16.7539C69.3434 16.9773 69.1199 17.1478 68.8441 17.2646L69.8975 18.8065H68.4821L67.5919 17.4676H67.5847H67.0565V18.8065H65.8326V14.3821ZM67.863 16.5064C68.0792 16.5064 68.237 16.46 68.3496 16.3654C68.4634 16.2697 68.5249 16.1408 68.5249 15.9824V15.9715C68.5249 15.7963 68.4634 15.6601 68.3466 15.5752C68.2316 15.4879 68.0617 15.4457 67.8599 15.4457H67.0577V16.5064H67.863Z" fill="white"/>
<path d="M72.4404 18.8837C72.0429 18.8837 71.6658 18.821 71.3147 18.6969C70.9539 18.5765 70.6432 18.3928 70.3667 18.1434L71.0491 17.3291C71.4912 17.6827 71.967 17.8586 72.488 17.8586C72.6488 17.8586 72.7728 17.8327 72.859 17.7815C72.9475 17.7273 72.9897 17.6556 72.9897 17.558V17.546C72.9897 17.4972 72.983 17.4568 72.9565 17.4213C72.9391 17.387 72.8999 17.3496 72.8397 17.3159C72.7849 17.2834 72.706 17.2508 72.6126 17.2195C72.5223 17.1876 72.3964 17.1551 72.2452 17.1195C72.0103 17.0684 71.7911 17.0069 71.5881 16.9425C71.3834 16.8744 71.2081 16.7919 71.0587 16.6895C70.913 16.5847 70.7919 16.4558 70.7022 16.3053C70.6191 16.1487 70.5781 15.9619 70.5781 15.7319V15.7192C70.5781 15.5108 70.616 15.3241 70.6931 15.1519C70.7672 14.9814 70.8859 14.8302 71.034 14.705C71.184 14.5791 71.3635 14.4803 71.5737 14.4123C71.7833 14.3412 72.0212 14.3044 72.2856 14.3044C72.6735 14.3044 73.0065 14.3556 73.3004 14.455C73.6016 14.5556 73.8696 14.705 74.1105 14.8983L73.495 15.765C73.2938 15.6229 73.0842 15.5144 72.874 15.4428C72.6632 15.3669 72.4542 15.3295 72.2573 15.3295C72.1121 15.3295 72.0019 15.3578 71.9278 15.4096C71.8507 15.4669 71.8182 15.5343 71.8182 15.6114V15.6271C71.8182 15.6753 71.8272 15.7198 71.8507 15.7608C71.8712 15.7963 71.9122 15.8325 71.9676 15.8638C72.026 15.8933 72.1031 15.927 72.2037 15.9571C72.3049 15.989 72.4295 16.021 72.5807 16.0553C72.8325 16.1125 73.0583 16.1727 73.2673 16.2474C73.4709 16.3221 73.6456 16.4131 73.7877 16.5154C73.9298 16.6233 74.0383 16.7485 74.1141 16.8991C74.1894 17.0467 74.2328 17.2268 74.2328 17.4297V17.4442C74.2328 17.67 74.1894 17.8718 74.0961 18.0495C74.0124 18.226 73.8973 18.3771 73.7371 18.5C73.5793 18.6271 73.3926 18.7168 73.1728 18.7849C72.9565 18.8523 72.7072 18.8837 72.4404 18.8837Z" fill="white"/>
<path d="M76.418 14.3821H75.1857V18.8059H76.418V14.3821Z" fill="white"/>
<path d="M78.5043 15.4584H77.1732V14.3821H81.0544V15.4584H79.7281V18.8053H78.5043V15.4584Z" fill="white"/>
<path d="M83.2816 17.1538L81.6 14.3821H82.9967L83.9104 15.9968L84.824 14.3821H86.1973L84.5145 17.1339V18.8053H83.2816V17.1538Z" fill="white"/>
<path d="M13.4311 39.8662H10.9671L7.04443 49.1511H9.73185L10.3221 47.6743H14.0099L14.617 49.1511H17.3532L13.4311 39.8662ZM11.0665 45.697L12.1826 42.909L13.2793 45.697H11.0665Z" fill="white"/>
</svg>

<svg viewBox="0 0 93 78" xmlns="http://www.w3.org/2000/svg"><path d="m59.12 77.23v-20.55h33.52v-56.68h-56.64v18.14h-36v38.54h36v20.55zm-56.58-56.5h33.46v33.36h-33.46zm54.05 53.91h-18.08v-18h18.08zm33.41-20.55h-51.49v-51.49h51.49z"/><path d="m12.19 34.87a5 5 0 0 1 -2-.38 4.4 4.4 0 0 1 -1.56-1 4.53 4.53 0 0 1 -1-1.51 4.65 4.65 0 0 1 -.38-1.86 4.72 4.72 0 0 1 1.43-3.4 5 5 0 0 1 1.58-1 5.1 5.1 0 0 1 2-.38 5.16 5.16 0 0 1 2 .38 4.69 4.69 0 0 1 1.56 1 4.53 4.53 0 0 1 1 1.51 4.68 4.68 0 0 1 .37 1.86 4.64 4.64 0 0 1 -.37 1.86 4.75 4.75 0 0 1 -1 1.53 4.83 4.83 0 0 1 -1.58 1 4.91 4.91 0 0 1 -2.05.39zm0-2.3a2.32 2.32 0 0 0 1-.2 2.22 2.22 0 0 0 .74-.53 2.58 2.58 0 0 0 .65-1.74 2.71 2.71 0 0 0 -.17-.95 2.44 2.44 0 0 0 -1.24-1.34 2.4 2.4 0 0 0 -1-.2 2.17 2.17 0 0 0 -1 .2 2.29 2.29 0 0 0 -.74.53 2.2 2.2 0 0 0 -.47.78 2.75 2.75 0 0 0 -.17.95 2.75 2.75 0 0 0 .21.93 2.51 2.51 0 0 0 .49.78 2.26 2.26 0 0 0 1.71.76z"/><path d="m26.74 34.87a5 5 0 0 1 -1.86-.35 4.58 4.58 0 0 1 -1.51-1 4.87 4.87 0 0 1 -1-1.52 4.58 4.58 0 0 1 -.37-1.9 4.74 4.74 0 0 1 .37-1.88 4.83 4.83 0 0 1 1-1.53 4.77 4.77 0 0 1 1.53-1 5.12 5.12 0 0 1 1.94-.37 5.67 5.67 0 0 1 1.29.14 4 4 0 0 1 1.07.4 4.45 4.45 0 0 1 .86.61 5.07 5.07 0 0 1 .69.78l-1.92 1.45a3.07 3.07 0 0 0 -.87-.79 2.18 2.18 0 0 0 -1.15-.3 2.11 2.11 0 0 0 -1.57.72 2.54 2.54 0 0 0 -.46.77 2.75 2.75 0 0 0 -.16.95 2.86 2.86 0 0 0 .16 1 2.72 2.72 0 0 0 .46.78 2.1 2.1 0 0 0 .69.52 2 2 0 0 0 .88.19 2.71 2.71 0 0 0 .66-.08 2 2 0 0 0 .54-.23 3.73 3.73 0 0 0 .46-.35 4.76 4.76 0 0 0 .43-.46l1.92 1.37a6.4 6.4 0 0 1 -.72.83 4.5 4.5 0 0 1 -.88.66 4.58 4.58 0 0 1 -1.11.43 5.26 5.26 0 0 1 -1.37.16z"/><path d="m22.45 39.9h3.55a6.78 6.78 0 0 1 2.2.33 4.72 4.72 0 0 1 1.64 1 4.08 4.08 0 0 1 1 1.44 4.79 4.79 0 0 1 .35 1.84 4.74 4.74 0 0 1 -.36 1.86 4 4 0 0 1 -1 1.46 4.62 4.62 0 0 1 -1.65 1 6.63 6.63 0 0 1 -2.22.35h-3.5zm3.6 7a2.77 2.77 0 0 0 1.85-.61 2.15 2.15 0 0 0 .7-1.73 2.15 2.15 0 0 0 -.7-1.72 2.72 2.72 0 0 0 -1.85-.61h-1.05v4.69z"/><path d="m47.53 70.29a5.73 5.73 0 0 1 -1.68-.23 3.19 3.19 0 0 1 -1.27-.73 3.23 3.23 0 0 1 -.81-1.25 5.22 5.22 0 0 1 -.28-1.77v-4.89h2.51v4.84a2 2 0 0 0 .43 1.4 1.72 1.72 0 0 0 2.32 0 1.85 1.85 0 0 0 .44-1.36v-4.9h2.46v4.83a5.22 5.22 0 0 1 -.29 1.82 3.3 3.3 0 0 1 -.83 1.26 3.23 3.23 0 0 1 -1.28.73 5.83 5.83 0 0 1 -1.72.25z"/><path d="m45.56 11.91a2.56 2.56 0 0 1 -1-.18 2.33 2.33 0 0 1 -.74-.49 2.25 2.25 0 0 1 -.68-1.62 2.26 2.26 0 0 1 .18-.9 2.43 2.43 0 0 1 .5-.73 2.61 2.61 0 0 1 .76-.49 2.51 2.51 0 0 1 1-.18 2.47 2.47 0 0 1 1 .18 2.27 2.27 0 0 1 .75.49 2.13 2.13 0 0 1 .49.73 2 2 0 0 1 .18.88 2.09 2.09 0 0 1 -.19.89 2.06 2.06 0 0 1 -.5.74 2.27 2.27 0 0 1 -.75.49 2.51 2.51 0 0 1 -1 .19zm0-1.11a1.14 1.14 0 0 0 .46-.09 1 1 0 0 0 .36-.26 1.25 1.25 0 0 0 .22-.37 1.21 1.21 0 0 0 .08-.46 1.21 1.21 0 0 0 -.08-.46 1.14 1.14 0 0 0 -.23-.38 1.12 1.12 0 0 0 -.83-.36 1.1 1.1 0 0 0 -.45.1 1 1 0 0 0 -.36.26 1 1 0 0 0 -.23.37 1.39 1.39 0 0 0 -.08.46 1.33 1.33 0 0 0 .08.45 1.23 1.23 0 0 0 .24.38 1.22 1.22 0 0 0 .36.27 1.11 1.11 0 0 0 .47.09z"/><path d="m51 11.91a2.43 2.43 0 0 1 -.89-.17 2.27 2.27 0 0 1 -.72-.48 2.09 2.09 0 0 1 -.49-.73 2.24 2.24 0 0 1 -.18-.91 2.44 2.44 0 0 1 .17-.9 2.34 2.34 0 0 1 .46-.72 2.25 2.25 0 0 1 .74-.5 2.54 2.54 0 0 1 .91-.19 2.37 2.37 0 0 1 .61.07 1.92 1.92 0 0 1 .51.18 2.13 2.13 0 0 1 .42.3 2.91 2.91 0 0 1 .33.37l-.87.71a1.67 1.67 0 0 0 -.42-.38 1 1 0 0 0 -.58-.13 1 1 0 0 0 -.43.09 1.12 1.12 0 0 0 -.33.24 1.57 1.57 0 0 0 -.22.38 1.33 1.33 0 0 0 -.08.45 1.39 1.39 0 0 0 .08.46 1.4 1.4 0 0 0 .22.38 1.15 1.15 0 0 0 .33.25 1 1 0 0 0 .43.09 1 1 0 0 0 .31 0 .76.76 0 0 0 .26-.11 1.18 1.18 0 0 0 .22-.17 2.23 2.23 0 0 0 .21-.22l.92.66a2.64 2.64 0 0 1 -.35.4 1.77 1.77 0 0 1 -.41.31 2.17 2.17 0 0 1 -.54.21 2.65 2.65 0 0 1 -.62.06z"/><path d="m55.21 7.36h1.19l1.88 4.46h-1.28l-.36-.82h-1.71l-.31.79h-1.29zm1.08 2.72-.5-1.26-.5 1.26z"/><path d="m59 7.4h1.71a3.19 3.19 0 0 1 1.06.16 2.29 2.29 0 0 1 .78.45 2.07 2.07 0 0 1 .45.69 2.3 2.3 0 0 1 .17.88 2.34 2.34 0 0 1 -.17.88 2.1 2.1 0 0 1 -.49.71 2.24 2.24 0 0 1 -.8.46 3 3 0 0 1 -1.06.17h-1.65zm1.73 3.34a1.28 1.28 0 0 0 .89-.3 1 1 0 0 0 .34-.83 1 1 0 0 0 -.34-.82 1.28 1.28 0 0 0 -.89-.3h-.5v2.26z"/><path d="m45.33 18.89a2.84 2.84 0 0 1 -.86-.12 1.57 1.57 0 0 1 -.64-.37 1.64 1.64 0 0 1 -.41-.63 2.5 2.5 0 0 1 -.15-.9v-2.49h1.26v2.46a1 1 0 0 0 .22.72.77.77 0 0 0 .59.22.78.78 0 0 0 .59-.22.94.94 0 0 0 .22-.68v-2.5h1.24v2.45a2.57 2.57 0 0 1 -.14.93 1.7 1.7 0 0 1 -.42.64 1.67 1.67 0 0 1 -.65.37 2.82 2.82 0 0 1 -.85.12z"/><path d="m48.51 14.38h1.14l1.83 2.34v-2.34h1.21v4.43h-1.08l-1.89-2.43v2.43h-1.21z"/><path d="m55.09 14.38h-1.23v4.43h1.23z"/><path d="m55.79 14.38h1.37l1 2.81 1-2.81h1.35l-1.79 4.46h-1.13z"/><path d="m61.21 14.38h3.55v1h-2.34v.67h2.12v1h-2.12v.71h2.38v1h-3.59z"/><path d="m65.83 14.38h2.09a2.49 2.49 0 0 1 .87.13 1.27 1.27 0 0 1 .57.36 1.36 1.36 0 0 1 .4 1 1.4 1.4 0 0 1 -.25.84 1.49 1.49 0 0 1 -.67.51l1.06 1.55h-1.42l-.89-1.34h-.53v1.34h-1.23zm2 2.13a.75.75 0 0 0 .49-.14.51.51 0 0 0 .17-.39.46.46 0 0 0 -.17-.39.81.81 0 0 0 -.49-.13h-.8v1.06z"/><path d="m72.44 18.88a3.52 3.52 0 0 1 -1.13-.18 2.56 2.56 0 0 1 -.94-.56l.68-.81a2.27 2.27 0 0 0 1.44.53.75.75 0 0 0 .37-.08.23.23 0 0 0 .13-.22.28.28 0 0 0 0-.13.32.32 0 0 0 -.12-.1.83.83 0 0 0 -.23-.1l-.36-.1a5.23 5.23 0 0 1 -.66-.18 2.17 2.17 0 0 1 -.53-.25 1.3 1.3 0 0 1 -.36-.38 1.28 1.28 0 0 1 -.12-.58 1.26 1.26 0 0 1 .45-1 1.74 1.74 0 0 1 .54-.29 2.27 2.27 0 0 1 .72-.11 3.41 3.41 0 0 1 1 .15 2.67 2.67 0 0 1 .81.45l-.61.87a2.39 2.39 0 0 0 -.63-.33 2 2 0 0 0 -.61-.11.57.57 0 0 0 -.33.08.23.23 0 0 0 -.11.2.28.28 0 0 0 0 .13.25.25 0 0 0 .12.1 1.3 1.3 0 0 0 .23.1l.38.1a4.32 4.32 0 0 1 .69.19 1.82 1.82 0 0 1 .52.27 1 1 0 0 1 .32.38 1.12 1.12 0 0 1 .12.53 1.33 1.33 0 0 1 -.13.61 1.22 1.22 0 0 1 -.36.45 1.52 1.52 0 0 1 -.57.28 2.34 2.34 0 0 1 -.72.09z"/><path d="m76.42 14.38h-1.23v4.43h1.23z"/><path d="m78.5 15.46h-1.33v-1.08h3.88v1.08h-1.32v3.35h-1.23z"/><path d="m83.28 17.15-1.68-2.77h1.4l.91 1.62.91-1.62h1.38l-1.69 2.75v1.68h-1.23z"/><path d="m13.43 39.87h-2.43l-4 9.28h2.73l.59-1.48h3.68l.61 1.48h2.73zm-2.36 5.83 1.11-2.79 1.1 2.79z"/></svg>
